packages/core/src/svgs/agi.svg

<svg width="24" height="24" viewBox="0 0 24 24" fill="none" xmlns="http://www.w3.org/2000/svg">
<g clip-path="url(#clip0_31_5732)">
<path d="M0 0H24V24H0V0Z" fill="#3A2674"/>
<path d="M14.2736 8.08703C14.3113 6.75546 13.6581 5.71746 12.741 4.81746C12.6993 4.78531 12.6703 4.73958 12.6588 4.68821C12.6474 4.63685 12.6543 4.5831 12.6784 4.53632C12.7137 4.51264 12.7553 4.5 12.7978 4.5C12.8403 4.5 12.8818 4.51264 12.9171 4.53632C13.6387 4.83307 14.2587 5.33267 14.7021 5.9746C15.1444 6.6153 15.3904 7.37093 15.4101 8.14918C15.4054 8.1856 15.4003 8.23703 15.3943 8.30175C15.3446 8.81818 15.2169 10.1519 14.4244 10.8187C14.3099 10.8894 14.1728 10.9139 14.0409 10.8872C13.909 10.8604 13.7922 10.7845 13.7143 10.6747C13.6517 10.596 13.6141 10.5004 13.6062 10.4001C13.5984 10.2999 13.6206 10.1996 13.6701 10.112C14.0494 9.50329 14.2577 8.80365 14.2731 8.0866L14.2736 8.08703ZM10.317 17.9699C10.6227 18.4083 10.9697 18.8165 11.3533 19.1887C11.4476 19.2826 11.4476 19.3765 11.397 19.4202C11.3533 19.4699 11.259 19.5136 11.2084 19.4699C10.6479 19.23 10.1465 18.8706 9.73928 18.4169C9.3326 17.9638 9.03022 17.4271 8.85342 16.8445C8.52042 15.6882 8.75914 13.9752 9.70114 13.1875C9.81562 13.1169 9.95265 13.0925 10.0844 13.1192C10.2162 13.146 10.3329 13.2219 10.4109 13.3315C10.4773 13.4102 10.5137 13.5098 10.5137 13.6128C10.5137 13.7158 10.4773 13.8155 10.4109 13.8942C10.0305 14.5024 9.82096 15.2019 9.80437 15.9191C9.78777 16.6363 9.96514 17.3447 10.317 17.9699ZM14.4304 12.8815C15.0063 13.5709 15.3512 14.4237 15.4166 15.3196V15.3256C15.4836 16.1994 15.2678 17.0716 14.8011 17.8135C14.3237 18.477 13.7142 19.0347 13.011 19.4515C12.9908 19.4703 12.9667 19.4842 12.9404 19.4923C12.914 19.5004 12.8862 19.5025 12.859 19.4983C12.8317 19.494 12.8058 19.4837 12.7831 19.468C12.7605 19.4524 12.7417 19.4317 12.7281 19.4077C12.7151 19.3894 12.7058 19.3686 12.701 19.3466C12.6961 19.3246 12.6958 19.3018 12.6999 19.2797C12.704 19.2575 12.7125 19.2364 12.725 19.2176C12.7374 19.1989 12.7535 19.1828 12.7723 19.1703C13.3539 18.7219 13.8228 18.1438 14.1416 17.4822C14.4257 16.8516 14.5069 16.1483 14.3739 15.4696C14.2828 14.8202 13.9675 14.2232 13.4824 13.7819C12.9317 13.3117 12.3315 12.9029 11.6923 12.5626C10.9477 12.1859 10.2655 11.6967 9.66985 11.1123C9.36311 10.7777 9.10906 10.3984 8.91642 9.98732C8.73415 9.57098 8.62165 9.12748 8.58342 8.6746C8.51101 7.77962 8.74577 6.88668 9.249 6.14303C9.69147 5.44375 10.3292 4.88948 11.0833 4.54875C11.115 4.521 11.1552 4.5047 11.1973 4.50245C11.2394 4.5002 11.281 4.51212 11.3156 4.53632C11.4034 4.59889 11.4034 4.75489 11.3156 4.83032C10.7577 5.30706 10.308 5.89734 9.99642 6.56175C9.73272 7.16491 9.65195 7.83223 9.76414 8.48089C9.89042 9.10517 10.2036 9.67629 10.662 10.1185C11.2148 10.5985 11.8145 11.0217 12.4521 11.3815C13.1842 11.7776 13.8514 12.2835 14.4304 12.8815Z" fill="white"/>
</g>
<defs>
<clipPath id="clip0_31_5732">
<rect width="24" height="24" fill="white"/>
</clipPath>
</defs>
</svg>

<svg xmlns="http://www.w3.org/2000/svg" width="24" height="24" fill="none" viewBox="0 0 24 24"><g clip-path="url(#a)"><path fill="#3A2674" d="M0 0h24v24H0z"/><path fill="#fff" d="M14.274 8.087c.037-1.332-.616-2.37-1.533-3.27a.225.225 0 0 1-.063-.28.21.21 0 0 1 .24 0 4.03 4.03 0 0 1 1.784 1.438c.442.64.688 1.396.708 2.174q-.007.056-.016.153c-.05.516-.177 1.85-.97 2.517a.53.53 0 0 1-.71-.144.505.505 0 0 1-.044-.563c.38-.609.588-1.308.603-2.025m-3.957 9.883q.46.659 1.036 1.219c.095.094.095.188.044.231-.044.05-.138.094-.189.05a4.19 4.19 0 0 1-2.355-2.625c-.333-1.157-.094-2.87.848-3.657a.53.53 0 0 1 .71.143.436.436 0 0 1 0 .563 3.99 3.99 0 0 0-.094 4.076m4.113-5.088c.576.689.921 1.542.987 2.438v.006a4.1 4.1 0 0 1-.616 2.488 5.9 5.9 0 0 1-1.79 1.637.182.182 0 0 1-.283-.043.167.167 0 0 1 .044-.238 4.7 4.7 0 0 0 1.37-1.688c.284-.63.365-1.334.232-2.012a2.8 2.8 0 0 0-.892-1.688 10 10 0 0 0-1.79-1.22 8.1 8.1 0 0 1-2.022-1.45 4.5 4.5 0 0 1-.754-1.125 4.1 4.1 0 0 1-.333-1.312 3.95 3.95 0 0 1 .666-2.532 4.23 4.23 0 0 1 1.834-1.594.19.19 0 0 1 .233-.013c.087.063.087.219 0 .294a5.2 5.2 0 0 0-1.32 1.732 3.36 3.36 0 0 0-.232 1.919 3.14 3.14 0 0 0 .898 1.637q.831.722 1.79 1.264c.732.396 1.4.902 1.978 1.5"/></g><defs><clipPath id="a"><path fill="#fff" d="M0 0h24v24H0z"/></clipPath></defs></svg>
